X:462
T:Dargai
C:Joe Buchanan's Scottish Tome - Page 491.0
I:491 0
Z:Carl Allison
R:Pibroch
L:1/8
M:C
K:A
{d}(c2 A) {A}(B2 A) | {A}(c2 A) {A}!fermata!e3 |{d}(c2 A) {Bd}(B2 A) | {A}(c2 A) !fermata!(F2 A) | 
(c2 A) (B2 A) | (c2 A) !fermata!(!open!a2 gf) | (c2 A) (B2 A) | {Ad}!fermata!B3 A2 |] 
c/d/ | {f}(e2 A) {fg}(f2 A) | {f}(e2 A) {Ad}!fermata!c3 | {f}(e2 A) {fg}(f2 A) | {f}(e2 A) {Ad}!fermata!B2 (c/d/) | 
{f}(e2 A) {fa}(f2 e) | {f}(e2 A) {A}!fermata!(a2 g/f/) | (e2 A) (e2 c) | {Ad}!fermata!B3 A2 |] 
{d}c2 {AdB}A {d}c2 {AdB}A | {d}c {AdB}A {A}!fermata!e3 | {d}c2 {AdB}A {d}c2 {AdB}A | {d}c2 {AdB}A (F2 A) | 
{d}c2 {AdB}A {d}c2 {AdB}A | {d}c2 {AdB}A {A}!fermata!(A2 g/f/) | e2 {AdB}A {f}e2 {AdB}A | {Ad}!fermata!B A2 |] 
(c/d/) | {f}e2 {AdB}A {Fa}f2 {AdB}A | {f}e2 {AdB}A {d}c2 {AdB}A | {f}e2 {AdB}A {fa}f2 {AdB}A | e2 {AdB}A {Bd}(B2 c/d/) | 
{d}e2 {AdB}A {fa}f2 {AdB}A | {f}e2 {AdB}A !open!!fermata!(a g/f/) |{f}e2 {AdB}A e2 {AdB}A | {Ad}!fermata!B3 A2 |] 

